X: 09013
T: BRENNAN'S PARLOR
C: Bob McQuillen 8 Aug 90
B: Bob's Note Book 9 #13
%R: jig
Z: 2019 John Chambers <jc:trillian.mit.edu>
N: In the NEFFA 2019 Bob McQuillen Slow Jam set.
M: 6/8
L: 1/8
K: G
d \
| Bdd Add | BdB GBd | cde dBd | gdB Adc |
| Bdd Add | BdB GBd | cde def | gGG G2 :|
|: F \
| EGG FGA | GAB ABc | BcB AGF | EFG FGF |
| EGG FGA | GAB ABc | BcB AGF | GEE E2 :|
%%begintext align
%% And that's
%% just where I was, with Johnny Brennan
%% in Erdenheim, PA (just outside Philly) when
%% this little ditty came popping out of my cute
%% little Hohner "Carmen" squeeze box.
%%endtext
